src/img/icon-report.svg

<svg height="49" viewBox="0 0 60 49" width="60" xmlns="http://www.w3.org/2000/svg"><path d="m95.9796652 30.7889367c-.0047775-.0665518-.0095672-.1331037-.0191344-.1996434-.0095671-.0570479-.023924-.1140836-.0382809-.1711194-.0143569-.0570479-.0335035-.1140837-.0526378-.1711194-.0239241-.0617938-.0478481-.1188417-.0765619-.1806355-.0143569-.028524-.023924-.0617938-.0382809-.0855597l-8.5749285-15.0736469c-.3253818-.5751763-.9378767-.9269313-1.5982442-.9269313h-12.3405472c-1.0144385 0-1.8374847.8176057-1.8374847 1.8253387s.8230462 1.8253387 1.8374847 1.8253387h11.2641486l6.4982034 11.4273503h-17.278481c-1.0144386 0-1.8374847.8176057-1.8374847 1.8253386 0 3.2275639-2.641323 5.856295-5.8952634 5.856295-3.2490404 0-5.8952634-2.6238635-5.8952634-5.856295 0-1.0077329-.8230461-1.8253386-1.8374846-1.8253386h-17.2784811l6.4982034-11.4273503h11.2641486c1.0144386 0 1.8374847-.8176057 1.8374847-1.8253387s-.8230461-1.8253387-1.8374847-1.8253387h-12.3356472c-.660343 0-1.2728869.351755-1.5982442.9269313l-8.5749285 15.0736469c-.0191343.0285118-.0239241.0617938-.0382809.0903177-.0287138.0570358-.0526378.1140837-.0765619.1758775-.023924.0570357-.0382809.1140837-.0526378.1711194-.0143569.0570358-.0287138.1140837-.0382809.1711194-.0095672.0665397-.0191344.1331037-.0191344.1948975 0 .0332699-.0095794.0617938-.0095794.0950637v16.2954068c0 1.0077452.8230461 1.8253387 1.8374847 1.8253387h56.3250306c1.0144386 0 1.8374847-.8175935 1.8374847-1.8253387l-.0095672-16.2954068c0-.028524-.0095671-.0617938-.0095671-.0903178zm-3.6654145 14.5601182h-52.6463863v-12.6447295h16.929359c.8613148 4.3732681 4.7420579 7.6816336 9.3932217 7.6816336 4.6463863 0 8.5318089-3.3084872 9.3884442-7.6816336h16.929359zm-34.8264598-24.4619721c-.7177705.713026-.7177705 1.8681733 0 2.5811506l7.1920376 7.1444973c.0143569.014262.0335035.0190078.0478604.0332698.1579134.1473535.3397386.2709533.5407227.356513.0191343.0095161.0430584.014262.062205.01902.1961943.0760558.411523.1188296.6364189.1235876.0047775 0 .0047775.0047459.0095672.0047459h.0047897.0047775c.5311433 0 1.0096611-.2281673 1.3446713-.5894384l7.1585953-7.1112761c.7177705-.7130259.7177705-1.8681733 0-2.5811506s-1.8806043-.7130259-2.5983258 0l-4.0625562 4.0357022v-23.07836542c0-1.00774515-.8230461-1.82533868-1.8374847-1.82533868-1.0144385 0-1.8374847.81759353-1.8374847 1.82533868v23.10148632l-4.0673336-4.040448c-.7177705-.713026-1.8806043-.713026-2.5983258 0z" fill="#008943" fill-rule="evenodd" transform="translate(-36)"/></svg>

<?xml version="1.0" encoding="UTF-8"?>
<svg width="60px" height="49px" viewBox="0 0 60 49" version="1.1" xmlns="http://www.w3.org/2000/svg" xmlns:xlink="http://www.w3.org/1999/xlink">
    <!-- Generator: Sketch 56.2 (81672) - https://sketch.com -->
    <title>Fill 1</title>
    <desc>Created with Sketch.</desc>
    <g id="Page-1" stroke="none" stroke-width="1" fill="none" fill-rule="evenodd">
        <g id="311-Approved-" transform="translate(-105.000000, -1208.000000)" fill="#008943">
            <g id="How-It-Works" transform="translate(0.000000, 1083.000000)">
                <g id="Report" transform="translate(69.000000, 125.000000)">
                    <path d="M95.9796652,30.7889367 C95.9748877,30.7223849 95.970098,30.655833 95.9605308,30.5892933 C95.9509637,30.5322454 95.9366068,30.4752097 95.9222499,30.4181739 C95.907893,30.361126 95.8887464,30.3040902 95.8696121,30.2470545 C95.845688,30.1852607 95.821764,30.1282128 95.7930502,30.066419 C95.7786933,30.037895 95.7691262,30.0046252 95.7547693,29.9808593 L87.1798408,14.9072124 C86.854459,14.3320361 86.2419641,13.9802811 85.5815966,13.9802811 L73.2410494,13.9802811 C72.2266109,13.9802811 71.4035647,14.7978868 71.4035647,15.8056198 C71.4035647,16.8133528 72.2266109,17.6309585 73.2410494,17.6309585 L84.505198,17.6309585 L91.0034014,29.0583088 L73.7249204,29.0583088 C72.7104818,29.0583088 71.8874357,29.8759145 71.8874357,30.8836474 C71.8874357,34.1112113 69.2461127,36.7399424 65.9921723,36.7399424 C62.7431319,36.7399424 60.0969089,34.1160789 60.0969089,30.8836474 C60.0969089,29.8759145 59.2738628,29.0583088 58.2594243,29.0583088 L40.9809432,29.0583088 L47.4791466,17.6309585 L58.7432952,17.6309585 C59.7577338,17.6309585 60.5807799,16.8133528 60.5807799,15.8056198 C60.5807799,14.7978868 59.7577338,13.9802811 58.7432952,13.9802811 L46.407648,13.9802811 C45.747305,13.9802811 45.1347611,14.3320361 44.8094038,14.9072124 L36.2344753,29.9808593 C36.215341,30.0093711 36.2105512,30.0426531 36.1961944,30.071177 C36.1674806,30.1282128 36.1435566,30.1852607 36.1196325,30.2470545 C36.0957085,30.3040902 36.0813516,30.3611382 36.0669947,30.4181739 C36.0526378,30.4752097 36.0382809,30.5322576 36.0287138,30.5892933 C36.0191466,30.655833 36.0095794,30.722397 36.0095794,30.7841908 C36.0095794,30.8174607 36,30.8459846 36,30.8792545 L36,47.1746613 C36,48.1824065 36.8230461,49 37.8374847,49 L94.1625153,49 C95.1769539,49 96,48.1824065 96,47.1746613 L95.9904328,30.8792545 C95.9904328,30.8507305 95.9808657,30.8174607 95.9808657,30.7889367 L95.9796652,30.7889367 Z M92.3142507,45.3490549 L39.6678644,45.3490549 L39.6678644,32.7043254 L56.5972234,32.7043254 C57.4585382,37.0775935 61.3392813,40.385959 65.9904451,40.385959 C70.6368314,40.385959 74.522254,37.0774718 75.3788893,32.7043254 L92.3082483,32.7043254 L92.3142507,45.3490549 Z M57.4877909,20.8870828 C56.7700204,21.6001088 56.7700204,22.7552561 57.4877909,23.4682334 L64.6798285,30.6127307 C64.6941854,30.6269927 64.713332,30.6317385 64.7276889,30.6460005 C64.8856023,30.793354 65.0674275,30.9169538 65.2684116,31.0025135 C65.2875459,31.0120296 65.31147,31.0167755 65.3306166,31.0215335 C65.5268109,31.0975893 65.7421396,31.1403631 65.9670355,31.1451211 C65.971813,31.1451211 65.971813,31.149867 65.9766027,31.149867 L65.9813924,31.149867 L65.9861699,31.149867 C66.5173132,31.149867 66.995831,30.9216997 67.3308412,30.5604286 L74.4894365,23.4491525 C75.207207,22.7361266 75.207207,21.5809792 74.4894365,20.8680019 C73.771666,20.1550246 72.6088322,20.154976 71.8911107,20.8680019 L67.8285545,24.9037041 L67.8285545,1.82533868 C67.8285545,0.817593533 67.0055084,0 65.9910698,0 C64.9766313,0 64.1535851,0.817593533 64.1535851,1.82533868 L64.1535851,24.926825 L60.0862515,20.886377 C59.368481,20.173351 58.2056472,20.173351 57.4879257,20.886377 L57.4877909,20.8870828 Z" id="Fill-1"></path>
                </g>
            </g>
        </g>
    </g>
</svg>
